Newaita-dark/.places-mint/32/folder-images.svg

<?xml version="1.0" encoding="UTF-8"?>
<svg xmlns="http://www.w3.org/2000/svg" xmlns:xlink="http://www.w3.org/1999/xlink" width="32px" height="32px" viewBox="0 0 32 32" version="1.1">
<defs>
<linearGradient id="linear0" gradientUnits="userSpaceOnUse" x1="254" y1="233.5" x2="254" y2="254.666672" gradientTransform="matrix(0.062506,0,0,0.062506,-0.00000381506,13.438787)">
<stop offset="0" style="stop-color:rgb(0%,0%,0%);stop-opacity:0.27451;"/>
<stop offset="1" style="stop-color:rgb(0%,0%,0%);stop-opacity:0;"/>
</linearGradient>
<radialGradient id="radial0" gradientUnits="userSpaceOnUse" cx="450.908936" cy="189.579361" fx="450.908936" fy="189.579361" r="21.166656" gradientTransform="matrix(0.00000017417,-0.0781325,-0.140638,-0.000000101539,54.115213,63.595334)">
<stop offset="0" style="stop-color:rgb(0%,0%,0%);stop-opacity:0.313726;"/>
<stop offset="0.222222" style="stop-color:rgb(0%,0%,0%);stop-opacity:0.27451;"/>
<stop offset="1" style="stop-color:rgb(0%,0%,0%);stop-opacity:0;"/>
</radialGradient>
<radialGradient id="radial1" gradientUnits="userSpaceOnUse" cx="450.908936" cy="189.579361" fx="450.908936" fy="189.579361" r="21.166656" gradientTransform="matrix(-0.00000017417,0.0781325,0.140638,0.000000101539,-22.362178,-7.527477)">
<stop offset="0" style="stop-color:rgb(0%,0%,0%);stop-opacity:0.313726;"/>
<stop offset="0.222222" style="stop-color:rgb(0%,0%,0%);stop-opacity:0.27451;"/>
<stop offset="1" style="stop-color:rgb(0%,0%,0%);stop-opacity:0;"/>
</radialGradient>
<radialGradient id="radial2" gradientUnits="userSpaceOnUse" cx="450.908936" cy="189.579361" fx="450.908936" fy="189.579361" r="21.166656" gradientTransform="matrix(-0.00000017417,-0.0781325,0.140638,-0.000000101539,-22.362178,63.595334)">
<stop offset="0" style="stop-color:rgb(0%,0%,0%);stop-opacity:0.313726;"/>
<stop offset="0.222222" style="stop-color:rgb(0%,0%,0%);stop-opacity:0.27451;"/>
<stop offset="1" style="stop-color:rgb(0%,0%,0%);stop-opacity:0;"/>
</radialGradient>
<radialGradient id="radial3" gradientUnits="userSpaceOnUse" cx="450.908936" cy="189.579361" fx="450.908936" fy="189.579361" r="21.166656" gradientTransform="matrix(0.00000017417,0.0781325,-0.140638,0.000000101539,54.115211,-7.527477)">
<stop offset="0" style="stop-color:rgb(0%,0%,0%);stop-opacity:0.313726;"/>
<stop offset="0.222222" style="stop-color:rgb(0%,0%,0%);stop-opacity:0.27451;"/>
<stop offset="1" style="stop-color:rgb(0%,0%,0%);stop-opacity:0;"/>
</radialGradient>
<linearGradient id="linear1" gradientUnits="userSpaceOnUse" x1="254" y1="-147.5" x2="254" y2="-31.083334" gradientTransform="matrix(0.062506,0,0,0.062506,0.00000124975,13.438781)">
<stop offset="0" style="stop-color:rgb(64.313728%,64.313728%,64.313728%);stop-opacity:0;"/>
<stop offset="1" style="stop-color:rgb(100%,100%,100%);stop-opacity:0.196078;"/>
</linearGradient>
<linearGradient id="linear2" gradientUnits="userSpaceOnUse" x1="254" y1="233.5" x2="254" y2="-105.166656" gradientTransform="matrix(0.062506,0,0,0.062506,-0.00000181239,13.438783)">
<stop offset="0" style="stop-color:rgb(34.509805%,34.509805%,34.509805%);stop-opacity:0;"/>
<stop offset="1" style="stop-color:rgb(98.039216%,98.039216%,98.039216%);stop-opacity:0.196078;"/>
</linearGradient>
</defs>
<g id="surface1">
<path style=" stroke:none;fill-rule:nonzero;fill:url(#linear0);" d="M 3.96875 28.035156 L 27.785156 28.035156 L 27.785156 29.355469 L 3.96875 29.355469 Z M 3.96875 28.035156 "/>
<path style=" stroke:none;fill-rule:nonzero;fill:url(#radial0);" d="M 27.785156 28.035156 L 30.429688 28.035156 L 30.429688 26.710938 L 27.785156 26.710938 Z M 27.785156 28.035156 "/>
<path style=" stroke:none;fill-rule:nonzero;fill:url(#radial1);" d="M 3.96875 28.035156 L 1.324219 28.035156 L 1.324219 29.355469 L 3.96875 29.355469 Z M 3.96875 28.035156 "/>
<path style=" stroke:none;fill-rule:nonzero;fill:url(#radial2);" d="M 3.96875 28.035156 L 1.324219 28.035156 L 1.324219 26.710938 L 3.96875 26.710938 Z M 3.96875 28.035156 "/>
<path style=" stroke:none;fill-rule:nonzero;fill:url(#radial3);" d="M 27.785156 28.035156 L 30.429688 28.035156 L 30.429688 29.355469 L 27.785156 29.355469 Z M 27.785156 28.035156 "/>
<path style=" stroke:none;fill-rule:nonzero;fill:rgb(61.176473%,80.000001%,39.607844%);fill-opacity:1;" d="M 7.277344 4.21875 L 28.777344 4.21875 C 29.507812 4.21875 30.097656 4.8125 30.097656 5.542969 L 30.097656 10.503906 C 30.097656 11.234375 29.507812 11.828125 28.777344 11.828125 L 7.277344 11.828125 C 6.546875 11.828125 5.953125 11.234375 5.953125 10.503906 L 5.953125 5.542969 C 5.953125 4.8125 6.546875 4.21875 7.277344 4.21875 Z M 7.277344 4.21875 "/>
<path style=" stroke:none;fill-rule:nonzero;fill:url(#linear1);" d="M 7.277344 4.21875 L 28.777344 4.21875 C 29.507812 4.21875 30.097656 4.8125 30.097656 5.542969 L 30.097656 10.503906 C 30.097656 11.234375 29.507812 11.828125 28.777344 11.828125 L 7.277344 11.828125 C 6.546875 11.828125 5.953125 11.234375 5.953125 10.503906 L 5.953125 5.542969 C 5.953125 4.8125 6.546875 4.21875 7.277344 4.21875 Z M 7.277344 4.21875 "/>
<path style=" stroke:none;fill-rule:nonzero;fill:rgb(100%,100%,100%);fill-opacity:0.392157;" d="M 7.277344 4.296875 C 6.542969 4.296875 5.953125 4.886719 5.953125 5.621094 L 5.953125 5.785156 C 5.953125 5.054688 6.542969 4.464844 7.277344 4.464844 L 28.777344 4.464844 C 29.507812 4.464844 30.097656 5.054688 30.097656 5.785156 L 30.097656 5.621094 C 30.097656 4.886719 29.507812 4.296875 28.777344 4.296875 Z M 7.277344 4.296875 "/>
<path style=" stroke:none;fill-rule:nonzero;fill:rgb(12.941177%,12.941177%,12.941177%);fill-opacity:1;" d="M 7.277344 4.125 C 6.492188 4.125 5.859375 4.757812 5.859375 5.542969 L 5.859375 10.503906 C 5.859375 11.285156 6.492188 11.921875 7.277344 11.921875 L 28.777344 11.921875 C 29.558594 11.921875 30.191406 11.285156 30.191406 10.503906 L 30.191406 5.542969 C 30.191406 4.757812 29.558594 4.125 28.777344 4.125 Z M 7.277344 4.3125 L 28.777344 4.3125 C 29.457031 4.3125 30.003906 4.859375 30.003906 5.542969 L 30.003906 10.503906 C 30.003906 11.1875 29.457031 11.734375 28.777344 11.734375 L 7.277344 11.734375 C 6.59375 11.734375 6.046875 11.1875 6.046875 10.503906 L 6.046875 5.542969 C 6.046875 4.859375 6.59375 4.3125 7.277344 4.3125 Z M 7.277344 4.3125 "/>
<path style=" stroke:none;fill-rule:nonzero;fill:rgb(68.235296%,83.529413%,50.588238%);fill-opacity:1;" d="M 2.644531 6.863281 C 1.914062 6.863281 1.324219 7.457031 1.324219 8.1875 L 1.324219 26.710938 C 1.324219 27.445312 1.914062 28.035156 2.644531 28.035156 L 29.105469 28.035156 C 29.839844 28.035156 30.429688 27.445312 30.429688 26.710938 L 30.429688 10.171875 L 12.570312 10.171875 C 11.835938 10.171875 11.246094 9.582031 11.246094 8.851562 L 11.246094 6.863281 Z M 2.644531 6.863281 "/>
<path style=" stroke:none;fill-rule:nonzero;fill:url(#linear2);" d="M 2.644531 6.863281 C 1.914062 6.863281 1.324219 7.457031 1.324219 8.1875 L 1.324219 26.710938 C 1.324219 27.445312 1.914062 28.035156 2.644531 28.035156 L 29.105469 28.035156 C 29.839844 28.035156 30.429688 27.445312 30.429688 26.710938 L 30.429688 10.171875 L 12.570312 10.171875 C 11.835938 10.171875 11.246094 9.582031 11.246094 8.851562 L 11.246094 6.863281 Z M 2.644531 6.863281 "/>
<path style=" stroke:none;fill-rule:nonzero;fill:rgb(0%,0%,0%);fill-opacity:0.196078;" d="M 2.644531 28.035156 C 1.914062 28.035156 1.324219 27.445312 1.324219 26.710938 L 1.324219 26.546875 C 1.324219 27.277344 1.914062 27.867188 2.644531 27.867188 L 29.105469 27.867188 C 29.839844 27.867188 30.429688 27.277344 30.429688 26.546875 L 30.429688 26.710938 C 30.429688 27.445312 29.839844 28.035156 29.105469 28.035156 Z M 2.644531 28.035156 "/>
<path style=" stroke:none;fill-rule:nonzero;fill:rgb(100%,100%,100%);fill-opacity:0.392157;" d="M 2.644531 6.949219 C 1.914062 6.949219 1.324219 7.539062 1.324219 8.269531 L 1.324219 8.4375 C 1.324219 7.703125 1.914062 7.113281 2.644531 7.113281 L 11.246094 7.113281 L 11.246094 6.949219 Z M 2.644531 6.949219 "/>
<path style=" stroke:none;fill-rule:nonzero;fill:rgb(100%,100%,100%);fill-opacity:0.392157;" d="M 12.484375 10.339844 C 11.753906 10.339844 11.164062 9.75 11.164062 9.015625 L 11.164062 8.851562 C 11.164062 9.582031 11.753906 10.175781 12.484375 10.171875 L 30.429688 10.171875 L 30.429688 10.339844 Z M 12.484375 10.339844 "/>
<path style=" stroke:none;fill-rule:nonzero;fill:rgb(12.941177%,12.941177%,12.941177%);fill-opacity:1;" d="M 2.644531 6.769531 C 1.863281 6.769531 1.230469 7.40625 1.230469 8.1875 L 1.230469 26.710938 C 1.230469 27.496094 1.863281 28.128906 2.644531 28.128906 L 29.105469 28.128906 C 29.890625 28.128906 30.523438 27.496094 30.523438 26.710938 L 30.523438 9.984375 L 12.570312 9.984375 C 11.886719 9.984375 11.339844 9.4375 11.339844 8.757812 L 11.339844 6.769531 Z M 2.644531 6.960938 L 11.152344 6.960938 L 11.152344 8.757812 C 11.152344 9.539062 11.785156 10.171875 12.570312 10.171875 L 30.335938 10.171875 L 30.335938 26.710938 C 30.335938 27.394531 29.789062 27.941406 29.105469 27.941406 L 2.644531 27.941406 C 1.964844 27.941406 1.417969 27.394531 1.417969 26.710938 L 1.417969 8.1875 C 1.417969 7.503906 1.964844 6.960938 2.644531 6.960938 Z M 2.644531 6.960938 "/>
<path style=" stroke:none;fill-rule:nonzero;fill:rgb(54.509807%,76.47059%,29.019609%);fill-opacity:1;" d="M 13.890625 12.726562 C 13.160156 12.726562 12.570312 13.316406 12.570312 14.046875 C 12.570312 14.78125 13.160156 15.371094 13.890625 15.371094 C 14.625 15.371094 15.214844 14.78125 15.214844 14.046875 C 15.214844 13.316406 14.625 12.726562 13.890625 12.726562 Z M 17.859375 15.371094 C 16.207031 15.371094 16.207031 20 15.214844 20 C 14.222656 20 13.890625 17.355469 13.230469 17.355469 C 12.238281 17.355469 11.246094 20.652344 11.246094 22.648438 C 11.246094 23.015625 11.539062 23.308594 11.90625 23.308594 L 19.84375 23.308594 C 20.210938 23.308594 20.507812 23.015625 20.507812 22.648438 C 20.554688 20.058594 19.515625 15.371094 17.859375 15.371094 Z M 17.859375 15.371094 "/>
<path style=" stroke:none;fill-rule:nonzero;fill:rgb(100%,100%,100%);fill-opacity:0.392157;" d="M 12.574219 14.179688 C 12.570312 14.222656 12.570312 14.265625 12.570312 14.308594 C 12.570312 15.039062 13.160156 15.628906 13.890625 15.628906 C 14.625 15.628906 15.214844 15.039062 15.214844 14.308594 C 15.214844 14.265625 15.214844 14.222656 15.207031 14.179688 C 15.144531 14.851562 14.582031 15.375 13.890625 15.375 C 13.203125 15.375 12.640625 14.851562 12.574219 14.179688 Z M 20.507812 22.601562 C 20.507812 22.617188 20.507812 22.636719 20.507812 22.652344 C 20.507812 23.019531 20.210938 23.3125 19.84375 23.3125 L 11.90625 23.3125 C 11.5625 23.3125 11.28125 23.050781 11.25 22.714844 C 11.246094 22.78125 11.246094 22.84375 11.246094 22.90625 C 11.246094 23.273438 11.539062 23.570312 11.90625 23.570312 L 19.84375 23.570312 C 20.210938 23.570312 20.507812 23.273438 20.507812 22.90625 C 20.507812 22.808594 20.507812 22.707031 20.507812 22.601562 Z M 20.507812 22.601562 "/>
<path style=" stroke:none;fill-rule:nonzero;fill:rgb(0%,0%,0%);fill-opacity:0.235294;" d="M 13.890625 12.726562 C 13.160156 12.726562 12.570312 13.316406 12.570312 14.046875 C 12.570312 14.09375 12.570312 14.136719 12.574219 14.179688 C 12.640625 13.507812 13.203125 12.984375 13.890625 12.984375 C 14.582031 12.984375 15.144531 13.507812 15.207031 14.179688 C 15.210938 14.136719 15.214844 14.09375 15.214844 14.046875 C 15.214844 13.316406 14.625 12.726562 13.890625 12.726562 Z M 17.859375 15.371094 C 16.207031 15.371094 16.207031 20 15.214844 20 C 14.222656 20 13.890625 17.355469 13.230469 17.355469 C 12.238281 17.355469 11.246094 20.652344 11.246094 22.648438 C 11.246094 22.667969 11.246094 22.691406 11.25 22.710938 C 11.308594 20.703125 12.269531 17.613281 13.230469 17.613281 C 13.890625 17.613281 14.222656 20.261719 15.214844 20.261719 C 16.207031 20.261719 16.207031 15.628906 17.859375 15.628906 C 19.453125 15.628906 20.472656 19.964844 20.507812 22.597656 C 20.542969 20 19.503906 15.371094 17.859375 15.371094 Z M 17.859375 15.371094 "/>
<path style=" stroke:none;fill-rule:nonzero;fill:rgb(12.941177%,12.941177%,12.941177%);fill-opacity:1;" d="M 13.890625 12.632812 C 13.109375 12.632812 12.476562 13.265625 12.476562 14.046875 C 12.476562 14.832031 13.109375 15.464844 13.890625 15.464844 C 14.675781 15.464844 15.308594 14.832031 15.308594 14.046875 C 15.308594 13.265625 14.675781 12.632812 13.890625 12.632812 Z M 13.890625 12.820312 C 14.574219 12.820312 15.121094 13.367188 15.121094 14.046875 C 15.121094 14.730469 14.574219 15.277344 13.890625 15.277344 C 13.210938 15.277344 12.664062 14.730469 12.664062 14.046875 C 12.664062 13.367188 13.210938 12.820312 13.890625 12.820312 Z M 17.859375 15.277344 C 17.402344 15.277344 17.0625 15.601562 16.808594 16.046875 C 16.550781 16.496094 16.367188 17.078125 16.199219 17.660156 C 16.035156 18.242188 15.890625 18.820312 15.726562 19.246094 C 15.644531 19.457031 15.558594 19.632812 15.472656 19.746094 C 15.382812 19.859375 15.300781 19.90625 15.214844 19.90625 C 15.007812 19.90625 14.828125 19.769531 14.65625 19.53125 C 14.484375 19.296875 14.328125 18.96875 14.183594 18.640625 C 14.039062 18.3125 13.90625 17.980469 13.761719 17.722656 C 13.691406 17.59375 13.613281 17.484375 13.53125 17.402344 C 13.445312 17.320312 13.34375 17.261719 13.230469 17.261719 C 12.929688 17.261719 12.664062 17.496094 12.425781 17.847656 C 12.183594 18.199219 11.964844 18.679688 11.777344 19.222656 C 11.402344 20.308594 11.152344 21.636719 11.152344 22.648438 C 11.152344 23.066406 11.492188 23.402344 11.90625 23.402344 L 19.84375 23.402344 C 20.261719 23.402344 20.601562 23.066406 20.601562 22.648438 C 20.625 21.339844 20.375 19.515625 19.910156 18.011719 C 19.679688 17.257812 19.394531 16.582031 19.054688 16.089844 C 18.71875 15.597656 18.320312 15.277344 17.859375 15.277344 Z M 17.859375 15.464844 C 18.230469 15.464844 18.582031 15.730469 18.902344 16.195312 C 19.222656 16.664062 19.503906 17.324219 19.734375 18.066406 C 20.191406 19.550781 20.4375 21.363281 20.414062 22.644531 L 20.414062 22.648438 C 20.414062 22.964844 20.160156 23.214844 19.84375 23.214844 L 11.90625 23.214844 C 11.589844 23.214844 11.339844 22.964844 11.339844 22.648438 C 11.339844 21.667969 11.585938 20.347656 11.953125 19.285156 C 12.140625 18.753906 12.355469 18.285156 12.578125 17.953125 C 12.804688 17.625 13.035156 17.449219 13.230469 17.449219 C 13.28125 17.449219 13.335938 17.472656 13.398438 17.535156 C 13.464844 17.597656 13.53125 17.695312 13.597656 17.816406 C 13.734375 18.054688 13.867188 18.382812 14.011719 18.714844 C 14.15625 19.046875 14.3125 19.382812 14.503906 19.644531 C 14.691406 19.902344 14.925781 20.09375 15.214844 20.09375 C 15.375 20.09375 15.511719 20 15.621094 19.859375 C 15.726562 19.722656 15.816406 19.535156 15.902344 19.3125 C 16.070312 18.867188 16.214844 18.289062 16.378906 17.710938 C 16.542969 17.136719 16.730469 16.5625 16.972656 16.140625 C 17.210938 15.722656 17.492188 15.464844 17.859375 15.464844 Z M 17.859375 15.464844 "/>
</g>
</svg>

<svg xmlns="http://www.w3.org/2000/svg" width="32" height="32"><defs><linearGradient id="a" gradientUnits="userSpaceOnUse" x1="254" y1="233.5" x2="254" y2="254.667" gradientTransform="matrix(.0625 0 0 .0625 0 13.439)"><stop offset="0" stop-opacity=".275"/><stop offset="1" stop-opacity="0"/></linearGradient><radialGradient id="b" gradientUnits="userSpaceOnUse" cx="450.909" cy="189.579" fx="450.909" fy="189.579" r="21.167" gradientTransform="matrix(0 -.07813 -.14064 0 54.115 63.595)"><stop offset="0" stop-opacity=".314"/><stop offset=".222" stop-opacity=".275"/><stop offset="1" stop-opacity="0"/></radialGradient><radialGradient id="c" gradientUnits="userSpaceOnUse" cx="450.909" cy="189.579" fx="450.909" fy="189.579" r="21.167" gradientTransform="matrix(0 .07813 .14064 0 -22.362 -7.527)"><stop offset="0" stop-opacity=".314"/><stop offset=".222" stop-opacity=".275"/><stop offset="1" stop-opacity="0"/></radialGradient><radialGradient id="d" gradientUnits="userSpaceOnUse" cx="450.909" cy="189.579" fx="450.909" fy="189.579" r="21.167" gradientTransform="matrix(0 -.07813 .14064 0 -22.362 63.595)"><stop offset="0" stop-opacity=".314"/><stop offset=".222" stop-opacity=".275"/><stop offset="1" stop-opacity="0"/></radialGradient><radialGradient id="e" gradientUnits="userSpaceOnUse" cx="450.909" cy="189.579" fx="450.909" fy="189.579" r="21.167" gradientTransform="matrix(0 .07813 -.14064 0 54.115 -7.527)"><stop offset="0" stop-opacity=".314"/><stop offset=".222" stop-opacity=".275"/><stop offset="1" stop-opacity="0"/></radialGradient><linearGradient id="f" gradientUnits="userSpaceOnUse" x1="254" y1="-147.5" x2="254" y2="-31.083" gradientTransform="matrix(.0625 0 0 .0625 0 13.439)"><stop offset="0" stop-color="#a4a4a4" stop-opacity="0"/><stop offset="1" stop-color="#fff" stop-opacity=".196"/></linearGradient><linearGradient id="g" gradientUnits="userSpaceOnUse" x1="254" y1="233.5" x2="254" y2="-105.167" gradientTransform="matrix(.0625 0 0 .0625 0 13.439)"><stop offset="0" stop-color="#585858" stop-opacity="0"/><stop offset="1" stop-color="#fafafa" stop-opacity=".196"/></linearGradient><linearGradient id="h" gradientUnits="userSpaceOnUse" x1="254" y1="-147.5" x2="254" y2="233.5" gradientTransform="matrix(.0625 0 0 .0625 0 13.439)"><stop offset="0" stop-color="#a4a4a4" stop-opacity="0"/><stop offset="1" stop-color="#fff" stop-opacity=".196"/></linearGradient></defs><path d="M3.969 28.035h23.816v1.32H3.97zm0 0" fill="url(#a)"/><path d="M27.785 28.035h2.645v-1.324h-2.645zm0 0" fill="url(#b)"/><path d="M3.969 28.035H1.324v1.32H3.97zm0 0" fill="url(#c)"/><path d="M3.969 28.035H1.324v-1.324H3.97zm0 0" fill="url(#d)"/><path d="M27.785 28.035h2.645v1.32h-2.645zm0 0" fill="url(#e)"/><path d="M7.277 4.219h21.5c.73 0 1.32.593 1.32 1.324v4.96c0 .731-.59 1.325-1.32 1.325h-21.5c-.73 0-1.324-.594-1.324-1.324V5.543c0-.73.594-1.324 1.324-1.324zm0 0" fill="#7cb342"/><path d="M7.277 4.219h21.5c.73 0 1.32.593 1.32 1.324v4.96c0 .731-.59 1.325-1.32 1.325h-21.5c-.73 0-1.324-.594-1.324-1.324V5.543c0-.73.594-1.324 1.324-1.324zm0 0" fill="url(#f)"/><path d="M7.277 4.219a1.32 1.32 0 0 0-1.324 1.324v.164c0-.734.59-1.324 1.324-1.324h21.5c.73 0 1.32.59 1.32 1.324v-.164a1.32 1.32 0 0 0-1.32-1.324zm0 0" fill="#e6e6e6" fill-opacity=".588"/><path d="M7.277 4.125c-.785 0-1.418.633-1.418 1.418v4.96c0 .782.633 1.419 1.418 1.419h21.5c.782 0 1.414-.637 1.414-1.418V5.543c0-.785-.632-1.418-1.414-1.418zm0 .188h21.5c.68 0 1.227.546 1.227 1.23v4.96c0 .684-.547 1.231-1.227 1.231h-21.5c-.683 0-1.23-.546-1.23-1.23V5.543c0-.684.547-1.23 1.23-1.23zm0 0" fill="#212121"/><path d="M2.645 6.863c-.73 0-1.32.594-1.32 1.324v18.524c0 .734.59 1.324 1.32 1.324h26.46a1.32 1.32 0 0 0 1.325-1.324V10.17H12.57a1.32 1.32 0 0 1-1.324-1.32V6.864zm0 0" fill="#9ccc65"/><path d="M2.645 6.863c-.73 0-1.32.594-1.32 1.324v18.524c0 .734.59 1.324 1.32 1.324h26.46a1.32 1.32 0 0 0 1.325-1.324V10.17H12.57a1.32 1.32 0 0 1-1.324-1.32V6.864zm0 0" fill="url(#g)"/><path d="M2.645 28.035c-.73 0-1.32-.59-1.32-1.324v-.164c0 .73.59 1.32 1.32 1.32h26.46a1.32 1.32 0 0 0 1.325-1.32v.164a1.32 1.32 0 0 1-1.325 1.324zm0 0" fill-opacity=".196"/><path d="M2.645 6.863c-.73 0-1.32.594-1.32 1.324v.168c0-.734.59-1.324 1.32-1.324h8.601v-.168zm0 0M12.484 10.254c-.73 0-1.32-.59-1.32-1.32v-.168c0 .734.59 1.324 1.32 1.324H30.43v.164zm0 0" fill="#e6e6e6" fill-opacity=".937"/><path d="M2.645 6.77c-.782 0-1.415.636-1.415 1.418V26.71c0 .785.633 1.418 1.415 1.418h26.46c.786 0 1.418-.633 1.418-1.418V9.984H12.57c-.683 0-1.23-.546-1.23-1.226V6.77zm0 .19h8.507v1.798c0 .781.633 1.414 1.418 1.414h17.766V26.71c0 .684-.547 1.23-1.23 1.23H2.644c-.68 0-1.227-.546-1.227-1.23V8.188c0-.684.547-1.227 1.227-1.227zm0 0" fill="#212121"/><path d="M13.89 12.727c-.73 0-1.32.59-1.32 1.32 0 .734.59 1.324 1.32 1.324a1.32 1.32 0 0 0 1.325-1.324c0-.73-.59-1.32-1.324-1.32zm3.97 2.644c-1.653 0-1.653 4.629-2.645 4.629s-1.324-2.645-1.985-2.645c-.992 0-1.984 3.297-1.984 5.293 0 .368.293.66.66.66h7.938a.66.66 0 0 0 .664-.66c.047-2.59-.992-7.277-2.649-7.277zm0 0" fill="#7cb342"/><path d="M13.89 12.727c-.73 0-1.32.59-1.32 1.32 0 .734.59 1.324 1.32 1.324a1.32 1.32 0 0 0 1.325-1.324c0-.73-.59-1.32-1.324-1.32zm3.97 2.644c-1.653 0-1.653 4.629-2.645 4.629s-1.324-2.645-1.985-2.645c-.992 0-1.984 3.297-1.984 5.293 0 .368.293.66.66.66h7.938a.66.66 0 0 0 .664-.66c.047-2.59-.992-7.277-2.649-7.277zm0 0" fill="url(#h)"/><path d="M13.89 12.633c-.78 0-1.413.633-1.413 1.414a1.415 1.415 0 1 0 1.414-1.414zm0 .187c.684 0 1.231.547 1.231 1.227 0 .683-.547 1.23-1.23 1.23-.68 0-1.227-.547-1.227-1.23 0-.68.547-1.227 1.227-1.227zm3.97 2.457c-.458 0-.797.325-1.051.77-.258.45-.442 1.031-.61 1.613-.164.582-.308 1.16-.472 1.586-.082.211-.168.387-.254.5-.09.113-.172.16-.258.16-.207 0-.387-.136-.559-.375-.172-.234-.328-.562-.472-.89-.145-.328-.278-.66-.422-.918a1.41 1.41 0 0 0-.23-.32.444.444 0 0 0-.302-.141c-.3 0-.566.234-.804.586-.242.351-.461.832-.649 1.375-.375 1.086-.625 2.414-.625 3.425 0 .418.34.754.754.754h7.938a.755.755 0 0 0 .758-.754c.023-1.308-.227-3.132-.692-4.636-.23-.754-.515-1.43-.855-1.922-.336-.492-.735-.813-1.196-.813zm0 .188c.37 0 .722.265 1.042.73.32.47.602 1.13.832 1.871.457 1.485.703 3.297.68 4.579v.003a.565.565 0 0 1-.57.567h-7.938a.562.562 0 0 1-.566-.567c0-.98.246-2.3.613-3.363.188-.531.402-1 .625-1.332.227-.328.457-.504.652-.504.051 0 .106.024.168.086.067.063.133.16.2.281.136.239.27.567.414.899.144.332.3.668.492.93.187.257.422.449.71.449.161 0 .298-.094.407-.235a2.22 2.22 0 0 0 .281-.547c.168-.445.313-1.023.477-1.601.164-.574.351-1.148.594-1.57.238-.418.52-.676.886-.676zm0 0" fill="#212121"/></svg>
